**harm	**harte	**silbe	**silbe	**rhyme	**timestamp	**phrase	**leadinstrument	**kern
*M4/4	*M4/4	*	*	*	*	*	*	*
*	*	*	*	*	*	*	*	*
*	*	*	*	*	*	*	*	*
*C:	*C:	*	*	*	*	*	*	*C:
*	*	*	*	*	*	*	*	*
*	*	*	*	*	*	*	*	*
1r;	N	.	.	.	0	.	r	1r;
1r	N	Freeze	.	.	0.441	.	r	1r
.	.	frame!	.	.	.	.	.	.
.	.	.	.	.	.	.	.	.
1r;	N	.	.	.	1.718	.	r	1r;
1r;	N	.	.	.	2.995	.	r	1r;
=1	=1	=1	=1	=1	=1	=1	=1	=1
*>Letter>A	*>Letter>A	*>Letter>A	*>Letter>A	*>Letter>A	*>Letter>A	*>Letter>A	*>Letter>A	*>Letter>A
*>Label>Intro	*>Label>Intro	*>Label>Intro	*>Label>Intro	*>Label>Intro	*>Label>Intro	*>Label>Intro	*>Label>Intro	*>Label>Intro
1I	C:maj	.	.	.	4.272	newline	organ	1C 1e 1g
=2	=2	=2	=2	=2	=2	=2	=2	=2
1I	C:maj	.	.	.	5.573	.	organ	1C 1e 1g
=3	=3	=3	=3	=3	=3	=3	=3	=3
1-VII	B-:maj	.	.	.	6.873	.	organ	1B- 1dd 1ff
=4	=4	=4	=4	=4	=4	=4	=4	=4
1IV	F:maj	.	.	.	8.173	.	organ	1F 1a 1cc
=5	=5	=5	=5	=5	=5	=5	=5	=5
1I	C:maj	.	.	.	9.473	.	organ	1C 1e 1g
=6	=6	=6	=6	=6	=6	=6	=6	=6
1I	C:maj	.	.	.	10.773	.	organ	1C 1e 1g
=7	=7	=7	=7	=7	=7	=7	=7	=7
1-VII	B-:maj	.	.	.	12.073	.	organ	1B- 1dd 1ff
=8	=8	=8	=8	=8	=8	=8	=8	=8
1IV	F:maj	.	.	.	13.373	.	organ	1F 1a 1cc
=9	=9	=9	=9	=9	=9	=9	=9	=9
*>Letter>B	*>Letter>B	*>Letter>B	*>Letter>B	*>Letter>B	*>Letter>B	*>Letter>B	*>Letter>B	*>Letter>B
*>Label>Instrumental	*>Label>Instrumental	*>Label>Instrumental	*>Label>Instrumental	*>Label>Instrumental	*>Label>Instrumental	*>Label>Instrumental	*>Label>Instrumental	*>Label>Instrumental
1I	C:maj	.	.	.	14.674	newline	trumpet	1C 1e 1g
=10	=10	=10	=10	=10	=10	=10	=10	=10
1I	C:maj	.	.	.	15.958	.	trumpet	1C 1e 1g
=11	=11	=11	=11	=11	=11	=11	=11	=11
1-VII	B-:maj	.	.	.	17.243	.	trumpet	1B- 1dd 1ff
=12	=12	=12	=12	=12	=12	=12	=12	=12
1IV	F:maj	.	.	.	18.527	.	trumpet	1F 1a 1cc
=13	=13	=13	=13	=13	=13	=13	=13	=13
1I	C:maj	.	.	.	19.812	.	trumpet	1C 1e 1g
=14	=14	=14	=14	=14	=14	=14	=14	=14
1I	C:maj	.	.	.	21.096	.	trumpet	1C 1e 1g
=15	=15	=15	=15	=15	=15	=15	=15	=15
1-VII	B-:maj	.	.	.	22.381	.	trumpet	1B- 1dd 1ff
=16	=16	=16	=16	=16	=16	=16	=16	=16
1IV	F:maj	.	.	.	23.665	.	trumpet	1F 1a 1cc
=17	=17	=17	=17	=17	=17	=17	=17	=17
*>Letter>B	*>Letter>B	*>Letter>B	*>Letter>B	*>Letter>B	*>Letter>B	*>Letter>B	*>Letter>B	*>Letter>B
*>Label>Verse	*>Label>Verse	*>Label>Verse	*>Label>Verse	*>Label>Verse	*>Label>Verse	*>Label>Verse	*>Label>Verse	*>Label>Verse
1I	C:maj	.	.	.	24.95	newline	voice	1C 1e 1g
.	.	I	I	.	.	.	.	.
.	.	could	could	.	.	.	.	.
.	.	see	see	.	.	.	.	.
.	.	it	it	.	.	.	.	.
.	.	was	was	.	.	.	.	.
.	.	a	a	.	.	.	.	.
=18	=18	=18	=18	=18	=18	=18	=18	=18
1I	C:maj	rough-	rough-	.	26.235	.	voice	1C 1e 1g
.	.	-cut	-cut	.	.	.	.	.
.	.	Tues-	Tues-	.	.	.	.	.
.	.	-day	-day	A	.	.	.	.
=19	=19	=19	=19	=19	=19	=19	=19	=19
1-VII	B-:maj	.	.	.	27.52	.	voice	1B- 1dd 1ff
.	.	slow	slow	.	.	.	.	.
.	.	mo-	mo-	.	.	.	.	.
.	.	-tion	-tion	.	.	.	.	.
.	.	week	week	.	.	.	.	.
=20	=20	=20	=20	=20	=20	=20	=20	=20
1IV	F:maj	_	_	.	28.806	.	voice	1F 1a 1cc
.	.	days	days	A	.	.	.	.
.	.	stare	stare	.	.	.	.	.
.	.	me	me	.	.	.	.	.
.	.	down	down	B	.	.	.	.
=21	=21	=21	=21	=21	=21	=21	=21	=21
1I	C:maj	_	_	.	30.091	.	voice	1C 1e 1g
.	.	_	_	.	.	.	.	.
.	.	_	_	.	.	.	.	.
=22	=22	=22	=22	=22	=22	=22	=22	=22
1I	C:maj	.	.	.	31.376	.	voice	1C 1e 1g
=23	=23	=23	=23	=23	=23	=23	=23	=23
1-VII	B-:maj	.	.	.	32.661	.	voice	1B- 1dd 1ff
.	.	Her	Her	.	.	.	.	.
.	.	lip-	lip-	.	.	.	.	.
.	.	-stick	-stick	.	.	.	.	.
=24	=24	=24	=24	=24	=24	=24	=24	=24
1IV	F:maj	re-	re-	(c	33.947	.	voice	1F 1a 1cc
.	.	-flex	-flex	C)	.	.	.	.
.	.	got	got	.	.	.	.	.
.	.	me	me	.	.	.	.	.
.	.	wound	wound	B	.	.	.	.
=25	=25	=25	=25	=25	=25	=25	=25	=25
1I	C:maj	_	_	.	35.232	newline	voice	1C 1e 1g
.	.	_	_	.	.	.	.	.
.	.	_	_	.	.	.	.	.
=26	=26	=26	=26	=26	=26	=26	=26	=26
1I	C:maj	.	.	.	36.524	.	voice	1C 1e 1g
=27	=27	=27	=27	=27	=27	=27	=27	=27
1-VII	B-:maj	.	.	.	37.816	.	voice	1B- 1dd 1ff
.	.	There	There	.	.	.	.	.
.	.	were	were	.	.	.	.	.
.	.	no	no	.	.	.	.	.
=28	=28	=28	=28	=28	=28	=28	=28	=28
1IV	F:maj	de-	de-	(c	39.109	.	voice	1F 1a 1cc
.	.	-fects	-fects	C)	.	.	.	.
.	.	to	to	.	.	.	.	.
.	.	be	be	.	.	.	.	.
.	.	found	found	B	.	.	.	.
=29	=29	=29	=29	=29	=29	=29	=29	=29
1I	C:maj	_	_	.	40.401	.	voice	1C 1e 1g
.	.	_	_	.	.	.	.	.
.	.	_	_	.	.	.	.	.
=30	=30	=30	=30	=30	=30	=30	=30	=30
1I	C:maj	.	.	.	41.693	.	voice	1C 1e 1g
=31	=31	=31	=31	=31	=31	=31	=31	=31
1-VII	B-:maj	Snap-	Snap-	.	42.986	.	voice	1B- 1dd 1ff
.	.	-shot	-shot	.	.	.	.	.
.	.	i-	i-	.	.	.	.	.
.	.	-mage	-mage	.	.	.	.	.
.	.	_	_	.	.	.	.	.
.	.	froze	froze	.	.	.	.	.
=32	=32	=32	=32	=32	=32	=32	=32	=32
1IV	F:maj	_	_	.	44.278	.	voice	1F 1a 1cc
.	.	with-	with-	.	.	.	.	.
.	.	-out	-out	.	.	.	.	.
.	.	a	a	.	.	.	.	.
.	.	_	.	.	.	.	.	.
.	.	sound	sound	B	.	.	.	.
=33	=33	=33	=33	=33	=33	=33	=33	=33
1V	G:maj	_	_	.	45.57	newline	voice	1G 1b 1dd
=34	=34	=34	=34	=34	=34	=34	=34	=34
1V	G:maj	_	_	.	46.857	.	voice	1G 1b 1dd
.	.	_	_	.	.	.	.	.
.	.	_	_	.	.	.	.	.
.	.	_	_	.	.	.	.	.
=35	=35	=35	=35	=35	=35	=35	=35	=35
1IV	F:maj	_	_	.	48.143	.	voice	1F 1a 1cc
=36	=36	=36	=36	=36	=36	=36	=36	=36
1IV	F:maj	.	.	.	49.429	.	voice	1F 1a 1cc
=37	=37	=37	=37	=37	=37	=37	=37	=37
2V	G:maj	.	.	.	50.716	newline	organ	1G 1b 1dd
2-VId	A-:maj/7	.	.	.	51.362	.	organ	2a- 2cc 2ee-
=38	=38	=38	=38	=38	=38	=38	=38	=38
2VId	A:maj/b7	.	.	.	52.008	.	organ	1a 1cc# 1ee
2-VId	A-:maj/7	.	.	.	52.654	.	organ	2a- 2cc 2ee-
=39	=39	=39	=39	=39	=39	=39	=39	=39
2V	G:maj	.	.	.	53.299	.	organ	1G 1b 1dd
2-VId	A-:maj/7	.	.	.	53.945	.	organ	2a- 2cc 2ee-
=40	=40	=40	=40	=40	=40	=40	=40	=40
2-VIIg	B-:maj/6	.	.	.	54.591	.	organ	1B- 1dd 1ff
2VIIg	B:maj/b6	.	.	.	55.237	.	organ	2B 2dd# 2ff#
=41	=41	=41	=41	=41	=41	=41	=41	=41
*>Letter>B	*>Letter>B	*>Letter>B	*>Letter>B	*>Letter>B	*>Letter>B	*>Letter>B	*>Letter>B	*>Letter>B
*>Label>Verse	*>Label>Verse	*>Label>Verse	*>Label>Verse	*>Label>Verse	*>Label>Verse	*>Label>Verse	*>Label>Verse	*>Label>Verse
1I	C:maj	.	.	.	55.883	newline	voice	1C 1e 1g
.	.	Thurs-	Thurs-	.	.	.	.	.
.	.	-day	-day	.	.	.	.	.
.	.	mor-	mor-	.	.	.	.	.
.	.	-ning	-ning	.	.	.	.	.
.	.	was	was	.	.	.	.	.
.	.	a	a	.	.	.	.	.
=42	=42	=42	=42	=42	=42	=42	=42	=42
.	.	_	.	.	.	.	.	.
1I	C:maj	hot	hot	.	57.176	.	voice	1C 1e 1g
.	.	flash	flash	.	.	.	.	.
.	.	fac-	fac-	.	.	.	.	.
.	.	-tor	-tor	.	.	.	.	.
=43	=43	=43	=43	=43	=43	=43	=43	=43
1-VII	B-:maj	.	.	.	58.469	.	voice	1B- 1dd 1ff
.	.	her	her	.	.	.	.	.
.	.	face	face	.	.	.	.	.
.	.	still	still	.	.	.	.	.
=44	=44	=44	=44	=44	=44	=44	=44	=44
1IV	F:maj	fo-	fo-	.	59.762	.	voice	1F 1a 1cc
.	.	-cused	-cused	.	.	.	.	.
.	.	in	in	.	.	.	.	.
.	.	my	my	.	.	.	.	.
=45	=45	=45	=45	=45	=45	=45	=45	=45
.	.	_	_	.	.	.	.	.
1I	C:maj	mind	_	D	61.055	.	voice	1C 1e 1g
.	.	_	_	.	.	.	.	.
.	.	_	_	.	.	.	.	.
=46	=46	=46	=46	=46	=46	=46	=46	=46
1I	C:maj	.	.	.	62.348	.	voice	1C 1e 1g
.	.	.	Dee-	.	.	.	.	.
.	.	.	-dle	.	.	.	.	.
.	.	.	lee-	.	.	.	.	.
.	.	.	-dle	.	.	.	.	.
.	.	.	lee!	.	.	.	.	.
=47	=47	=47	=47	=47	=47	=47	=47	=47
1-VII	B-:maj	Test	Test	.	63.641	.	voice	1B- 1dd 1ff
.	.	strip	strip	.	.	.	.	.
.	.	proof	proof	.	.	.	.	.
.	.	sheet	sheet	.	.	.	.	.
.	.	_	_	.	.	.	.	.
.	.	love	love	.	.	.	.	.
=48	=48	=48	=48	=48	=48	=48	=48	=48
1IV	F:maj	_	_	.	64.934	.	voice	1F 1a 1cc
.	.	is	is	.	.	.	.	.
.	.	hard	hard	.	.	.	.	.
.	.	to	to	.	.	.	.	.
.	.	_	_	.	.	.	.	.
.	.	find	find	D	.	.	.	.
=49	=49	=49	=49	=49	=49	=49	=49	=49
1I	C:maj	_	_	.	66.227	newline	voice	1C 1e 1g
.	.	_	_	.	.	.	.	.
.	.	_	_	.	.	.	.	.
=50	=50	=50	=50	=50	=50	=50	=50	=50
1I	C:maj	.	.	.	67.515	.	voice	1C 1e 1g
.	.	.	Dee-	.	.	.	.	.
.	.	.	-dle	.	.	.	.	.
.	.	.	lee-	.	.	.	.	.
.	.	.	-dle	.	.	.	.	.
.	.	.	lee!	.	.	.	.	.
=51	=51	=51	=51	=51	=51	=51	=51	=51
1-VII	B-:maj	Fri-	Fri-	.	68.804	.	voice	1B- 1dd 1ff
.	.	-day	-day	.	.	.	.	.
.	.	night,	night,	.	.	.	.	.
.	.	_	_	.	.	.	.	.
.	.	we'll	we'll	.	.	.	.	.
.	.	_	_	.	.	.	.	.
.	.	dance	dance	.	.	.	.	.
=52	=52	=52	=52	=52	=52	=52	=52	=52
1IV	F:maj	_	_	.	70.092	.	voice	1F 1a 1cc
.	.	the	the	.	.	.	.	.
.	.	spot-	spot-	.	.	.	.	.
.	.	-light	-light	.	.	.	.	.
=53	=53	=53	=53	=53	=53	=53	=53	=53
1I	C:maj	grind	grind	D	71.381	.	voice	1C 1e 1g
.	.	_	_	.	.	.	.	.
.	.	_	_	.	.	.	.	.
=54	=54	=54	=54	=54	=54	=54	=54	=54
1I	C:maj	.	.	.	72.67	.	voice	1C 1e 1g
.	.	.	Dee-	.	.	.	.	.
.	.	.	-dle	.	.	.	.	.
.	.	.	lee-	.	.	.	.	.
.	.	.	-dle	.	.	.	.	.
.	.	.	lee!	.	.	.	.	.
=55	=55	=55	=55	=55	=55	=55	=55	=55
1-VII	B-:maj	Stop	Stop	.	73.958	.	voice	1B- 1dd 1ff
.	.	time	time	.	.	.	.	.
.	.	heart	heart	.	.	.	.	.
.	.	for	for	.	.	.	.	.
.	.	_	_	.	.	.	.	.
.	.	me,	me,	.	.	.	.	.
=56	=56	=56	=56	=56	=56	=56	=56	=56
1IV	F:maj	_	_	.	75.247	.	voice	1F 1a 1cc
.	.	if	if	.	.	.	.	.
.	.	she's	she's	.	.	.	.	.
.	.	not	not	.	.	.	.	.
=57	=57	=57	=57	=57	=57	=57	=57	=57
1V	G:maj	mine	mine	D	76.535	newline	voice	1G 1b 1dd
=58	=58	=58	=58	=58	=58	=58	=58	=58
1V	G:maj	_	_	.	77.839	.	voice	1G 1b 1dd
.	.	_	_	.	.	.	.	.
.	.	_	_	.	.	.	.	.
.	.	_	_	.	.	.	.	.
=59	=59	=59	=59	=59	=59	=59	=59	=59
1IV	F:maj	_	_	.	79.143	.	voice	1F 1a 1cc
.	.	_	_	.	.	.	.	.
.	.	.	.	.	.	.	.	.
.	.	.	.	.	.	.	.	.
=60	=60	=60	=60	=60	=60	=60	=60	=60
1IV	F:maj	.	.	.	80.446	.	voice	1F 1a 1cc
=61	=61	=61	=61	=61	=61	=61	=61	=61
2V	G:maj	.	.	.	81.75	newline	organ	1G 1b 1dd
2-VId	A-:maj/7	.	.	.	82.393	.	organ	2a- 2cc 2ee-
=62	=62	=62	=62	=62	=62	=62	=62	=62
2VId	A:maj/b7	.	.	.	83.036	.	organ	1a 1cc# 1ee
2-VId	A-:maj/7	.	.	.	83.679	.	organ	2a- 2cc 2ee-
=63	=63	=63	=63	=63	=63	=63	=63	=63
2V	G:maj	.	.	.	84.322	.	organ	1G 1b 1dd
2-VId	A-:maj/7	.	.	.	84.966	.	organ	2a- 2cc 2ee-
=64	=64	=64	=64	=64	=64	=64	=64	=64
2-VIIg	B-:maj/6	.	.	.	85.609	.	organ	1B- 1dd 1ff
2VIIg	B:maj/b6	.	.	.	86.252	.	organ	2B 2dd# 2ff#
=65	=65	=65	=65	=65	=65	=65	=65	=65
*>Letter>C	*>Letter>C	*>Letter>C	*>Letter>C	*>Letter>C	*>Letter>C	*>Letter>C	*>Letter>C	*>Letter>C
*>Label>Chorus	*>Label>Chorus	*>Label>Chorus	*>Label>Chorus	*>Label>Chorus	*>Label>Chorus	*>Label>Chorus	*>Label>Chorus	*>Label>Chorus
2I	C:maj	.	Freeze	.	86.895	newline	voice	2C 2e 2g
.	.	.	frame	.	.	.	.	.
2r	N	Freeze	.	.	87.539	.	voice	2r
.	.	frame	.	.	.	.	.	.
=66	=66	=66	=66	=66	=66	=66	=66	=66
2I	C:maj	.	Freeze	.	88.183	.	voice	2C 2e 2g
.	.	.	frame	.	.	.	.	.
2r	N	Freeze	.	.	88.827	.	voice	2r
.	.	_	.	.	.	.	.	.
.	.	frame	.	.	.	.	.	.
=67	=67	=67	=67	=67	=67	=67	=67	=67
*	*	*	*	*	*	*	*	*
2I	C:maj	.	Freeze	.	89.471	.	voice	2C 2e 2g
.	.	.	frame	.	.	.	.	.
.	.	_	.	.	.	.	.	.
2r	N	Freeze	.	.	90.114	.	voice	2r
.	.	frame!	.	.	.	.	.	.
=68	=68	=68	=68	=68	=68	=68	=68	=68
*	*	*	*	*	*	*	*	*
2I	C:maj	.	Freeze	.	90.758	.	voice	2C 2e 2g
.	.	.	frame,	.	.	.	.	.
2r	N	.	woo!	.	91.402	.	voice	2r
.	.	N-	.	.	.	.	.	.
.	.	_	.	.	.	.	.	.
.	.	-now,	.	.	.	.	.	.
=69	=69	=69	=69	=69	=69	=69	=69	=69
1V	G:maj	freeze	.	.	92.046	.	voice	1G 1b 1dd
.	.	.	.	.	.	.	.	.
.	.	.	.	.	.	.	.	.
=70	=70	=70	=70	=70	=70	=70	=70	=70
1r	N	.	.	.	93.334	.	voice	1r
=71	=71	=71	=71	=71	=71	=71	=71	=71
*>Letter>B	*>Letter>B	*>Letter>B	*>Letter>B	*>Letter>B	*>Letter>B	*>Letter>B	*>Letter>B	*>Letter>B
*>Label>Verse	*>Label>Verse	*>Label>Verse	*>Label>Verse	*>Label>Verse	*>Label>Verse	*>Label>Verse	*>Label>Verse	*>Label>Verse
1I	C:maj	.	.	.	94.622	newline	voice	1C 1e 1g
.	.	Now	Now	.	.	.	.	.
.	.	I'm	I'm	.	.	.	.	.
.	.	loo-	loo-	.	.	.	.	.
.	.	-king	-king	.	.	.	.	.
.	.	at	at	.	.	.	.	.
.	.	a	a	.	.	.	.	.
=72	=72	=72	=72	=72	=72	=72	=72	=72
.	.	_	.	.	.	.	.	.
1I	C:maj	flash-	flash-	.	95.902	.	voice	1C 1e 1g
.	.	-back	-back	.	.	.	.	.
.	.	Sun-	Sun-	.	.	.	.	.
.	.	-day,	-day,	.	.	.	.	.
=73	=73	=73	=73	=73	=73	=73	=73	=73
1-VII	B-:maj	zoom	zoom	.	97.183	.	voice	1B- 1dd 1ff
.	.	lens	lens	.	.	.	.	.
.	.	fee-	fee-	.	.	.	.	.
.	.	-l-	-l-	.	.	.	.	.
.	.	-ings	-ings	.	.	.	.	.
=74	=74	=74	=74	=74	=74	=74	=74	=74
.	.	_	_	.	.	.	.	.
1IV	F:maj	just	just	.	98.464	.	voice	1F 1a 1cc
.	.	won't	won't	.	.	.	.	.
.	.	dis-	dis-	.	.	.	.	.
.	.	-ap-	-ap-	.	.	.	.	.
.	.	-pear	-pear	E	.	.	.	.
=75	=75	=75	=75	=75	=75	=75	=75	=75
.	.	_	_	.	.	.	.	.
1I	C:maj	_	_	.	99.745	.	voice	1C 1e 1g
.	.	_	_	.	.	.	.	.
.	.	_	_	.	.	.	.	.
=76	=76	=76	=76	=76	=76	=76	=76	=76
1I	C:maj	.	.	.	101.025	.	voice	1C 1e 1g
.	.	.	_	.	.	.	.	.
.	.	.	_	.	.	.	.	.
.	.	.	_	.	.	.	.	.
.	.	.	_	.	.	.	.	.
.	.	.	_	.	.	.	.	.
=77	=77	=77	=77	=77	=77	=77	=77	=77
1-VII	B-:maj	Close	Close	.	102.306	.	voice	1B- 1dd 1ff
.	.	up,	up,	.	.	.	.	.
.	.	dark	dark	.	.	.	.	.
.	.	room	room	.	.	.	.	.
=78	=78	=78	=78	=78	=78	=78	=78	=78
1IV	F:maj	sweet	sweet	.	103.587	.	voice	1F 1a 1cc
.	.	talk	talk	.	.	.	.	.
.	.	in	in	.	.	.	.	.
.	.	my	my	.	.	.	.	.
=79	=79	=79	=79	=79	=79	=79	=79	=79
1I	C:maj	ear	ear	E	104.868	newline	voice	1C 1e 1g
.	.	_	_	.	.	.	.	.
.	.	_	_	.	.	.	.	.
=80	=80	=80	=80	=80	=80	=80	=80	=80
1I	C:maj	.	.	.	106.167	.	voice	1C 1e 1g
.	.	.	_	.	.	.	.	.
.	.	.	_	.	.	.	.	.
.	.	.	_	.	.	.	.	.
.	.	.	_	.	.	.	.	.
.	.	.	_	.	.	.	.	.
=81	=81	=81	=81	=81	=81	=81	=81	=81
1-VII	B-:maj	.	.	.	107.466	.	voice	1B- 1dd 1ff
.	.	Her	Her	.	.	.	.	.
.	.	hot	hot	.	.	.	.	.
.	.	spot	spot	.	.	.	.	.
=82	=82	=82	=82	=82	=82	=82	=82	=82
1IV	F:maj	love	love	.	108.766	.	voice	1F 1a 1cc
.	.	for	for	.	.	.	.	.
.	.	me	me	.	.	.	.	.
.	.	_	_	.	.	.	.	.
.	.	is	is	.	.	.	.	.
=83	=83	=83	=83	=83	=83	=83	=83	=83
1I	C:maj	strong	strong	F	110.065	.	voice	1C 1e 1g
.	.	_	_	.	.	.	.	.
.	.	_	_	.	.	.	.	.
=84	=84	=84	=84	=84	=84	=84	=84	=84
1I	C:maj	.	.	.	111.364	.	voice	1C 1e 1g
.	.	.	_	.	.	.	.	.
.	.	.	_	.	.	.	.	.
.	.	.	_	.	.	.	.	.
.	.	.	_	.	.	.	.	.
.	.	.	_	.	.	.	.	.
=85	=85	=85	=85	=85	=85	=85	=85	=85
1-VII	B-:maj	.	.	.	112.664	.	voice	1B- 1dd 1ff
.	.	This	This	.	.	.	.	.
.	.	freeze-	freeze-	.	.	.	.	.
.	.	-frame	-frame	.	.	.	.	.
=86	=86	=86	=86	=86	=86	=86	=86	=86
1IV	F:maj	mo-	mo-	.	113.963	.	voice	1F 1a 1cc
.	.	-ment	-ment	.	.	.	.	.
.	.	can't	can't	.	.	.	.	.
.	.	be	be	.	.	.	.	.
=87	=87	=87	=87	=87	=87	=87	=87	=87
1V	G:maj	wrong	wrong	F	115.262	newline	voice	1G 1b 1dd
=88	=88	=88	=88	=88	=88	=88	=88	=88
1V	G:maj	_	_	.	116.568	.	voice	1G 1b 1dd
.	.	_	_	.	.	.	.	.
.	.	_	_	.	.	.	.	.
.	.	_	_	.	.	.	.	.
=89	=89	=89	=89	=89	=89	=89	=89	=89
1IV	F:maj	_	_	.	117.874	.	voice	1F 1a 1cc
.	.	_	_	.	.	.	.	.
.	.	.	.	.	.	.	.	.
.	.	.	.	.	.	.	.	.
=90	=90	=90	=90	=90	=90	=90	=90	=90
1IV	F:maj	.	.	.	119.18	.	voice	1F 1a 1cc
=91	=91	=91	=91	=91	=91	=91	=91	=91
2V	G:maj	.	.	.	120.486	newline	organ	1G 1b 1dd
2-VId	A-:maj/7	.	.	.	121.124	.	organ	2a- 2cc 2ee-
=92	=92	=92	=92	=92	=92	=92	=92	=92
2VId	A:maj/b7	.	.	.	121.762	.	organ	1a 1cc# 1ee
2-VId	A-:maj/7	.	.	.	122.4	.	organ	2a- 2cc 2ee-
=93	=93	=93	=93	=93	=93	=93	=93	=93
2V	G:maj	.	.	.	123.038	.	organ	1G 1b 1dd
2-VId	A-:maj/7	.	.	.	123.676	.	organ	2a- 2cc 2ee-
=94	=94	=94	=94	=94	=94	=94	=94	=94
2-VIIg	B-:maj/6	.	.	.	124.314	.	organ	1B- 1dd 1ff
2VIIg	B:maj/b6	.	.	.	124.952	.	organ	2B 2dd# 2ff#
=95	=95	=95	=95	=95	=95	=95	=95	=95
*>Letter>C	*>Letter>C	*>Letter>C	*>Letter>C	*>Letter>C	*>Letter>C	*>Letter>C	*>Letter>C	*>Letter>C
*>Label>Chorus	*>Label>Chorus	*>Label>Chorus	*>Label>Chorus	*>Label>Chorus	*>Label>Chorus	*>Label>Chorus	*>Label>Chorus	*>Label>Chorus
2I	C:maj	.	Freeze	.	125.59	newline	voice	2C 2e 2g
.	.	.	frame	.	.	.	.	.
2r	N	Freeze	.	.	126.237	.	voice	2r
.	.	frame	.	.	.	.	.	.
=96	=96	=96	=96	=96	=96	=96	=96	=96
2I	C:maj	.	Freeze	.	126.884	.	voice	2C 2e 2g
.	.	.	frame	.	.	.	.	.
2r	N	Freeze	.	.	127.53	.	voice	2r
.	.	_	.	.	.	.	.	.
.	.	frame	.	.	.	.	.	.
=97	=97	=97	=97	=97	=97	=97	=97	=97
2I	C:maj	_	Freeze	.	128.177	.	voice	2C 2e 2g
.	.	.	frame	.	.	.	.	.
.	.	_	.	.	.	.	.	.
2r	N	Freeze	.	.	128.824	.	voice	2r
.	.	frame!	.	.	.	.	.	.
=98	=98	=98	=98	=98	=98	=98	=98	=98
2I	C:maj	.	Freeze	.	129.47	.	voice	2C 2e 2g
.	.	.	frame,	.	.	.	.	.
2r	N	.	woo!	.	130.117	.	voice	2r
.	.	N-	.	.	.	.	.	.
.	.	_	.	.	.	.	.	.
.	.	-now,	.	.	.	.	.	.
=99	=99	=99	=99	=99	=99	=99	=99	=99
1V	G:maj	freeze	.	.	130.763	.	voice	1G 1b 1dd
.	.	.	.	.	.	.	.	.
.	.	.	.	.	.	.	.	.
=100	=100	=100	=100	=100	=100	=100	=100	=100
1r	N	.	.	.	132.057	.	voice	1r
=101	=101	=101	=101	=101	=101	=101	=101	=101
*>Letter>D	*>Letter>D	*>Letter>D	*>Letter>D	*>Letter>D	*>Letter>D	*>Letter>D	*>Letter>D	*>Letter>D
*>Label>Trans	*>Label>Trans	*>Label>Trans	*>Label>Trans	*>Label>Trans	*>Label>Trans	*>Label>Trans	*>Label>Trans	*>Label>Trans
1Im7	C:7	.	.	.	133.35	newline	trumpet	1C 1e 1g 1b
=102	=102	=102	=102	=102	=102	=102	=102	=102
1Im7	C:7	.	.	.	134.634	.	trumpet	1C 1e 1g 1b
=103	=103	=103	=103	=103	=103	=103	=103	=103
1Im7	C:7	.	.	.	135.919	.	trumpet	1C 1e 1g 1b
=104	=104	=104	=104	=104	=104	=104	=104	=104
1Im7	C:7	.	.	.	137.203	.	trumpet	1C 1e 1g 1b
=105	=105	=105	=105	=105	=105	=105	=105	=105
1Im7	C:7	.	.	.	138.487	.	trumpet	1C 1e 1g 1b
=106	=106	=106	=106	=106	=106	=106	=106	=106
1Im7	C:7	.	.	.	139.772	.	trumpet	1C 1e 1g 1b
=107	=107	=107	=107	=107	=107	=107	=107	=107
1Im7	C:7	.	.	.	141.056	.	trumpet	1C 1e 1g 1b
=108	=108	=108	=108	=108	=108	=108	=108	=108
1Im7	C:7	.	.	.	142.34	.	trumpet	1C 1e 1g 1b
=109	=109	=109	=109	=109	=109	=109	=109	=109
*>Letter>B	*>Letter>B	*>Letter>B	*>Letter>B	*>Letter>B	*>Letter>B	*>Letter>B	*>Letter>B	*>Letter>B
*>Label>Verse	*>Label>Verse	*>Label>Verse	*>Label>Verse	*>Label>Verse	*>Label>Verse	*>Label>Verse	*>Label>Verse	*>Label>Verse
1I	C:maj	.	.	.	143.625	newline	trumpet	1C 1e 1g
=110	=110	=110	=110	=110	=110	=110	=110	=110
1I	C:maj	.	.	.	144.916	.	trumpet	1C 1e 1g
=111	=111	=111	=111	=111	=111	=111	=111	=111
1-VII	B-:maj	.	.	.	146.207	.	trumpet	1B- 1dd 1ff
=112	=112	=112	=112	=112	=112	=112	=112	=112
1IV	F:maj	.	.	.	147.498	.	trumpet	1F 1a 1cc
=113	=113	=113	=113	=113	=113	=113	=113	=113
1I	C:maj	Shoot	.	.	148.789	.	trumpet	1C 1e 1g
.	.	.	.	.	.	.	.	.
.	.	Shoot	.	.	.	.	.	.
.	.	.	.	.	.	.	.	.
=114	=114	=114	=114	=114	=114	=114	=114	=114
1I	C:maj	.	.	.	150.08	.	trumpet	1C 1e 1g
.	.	Dee-	.	.	.	.	.	.
.	.	-dle	.	.	.	.	.	.
.	.	lee-	.	.	.	.	.	.
.	.	-dle	.	.	.	.	.	.
.	.	lee!	.	.	.	.	.	.
=115	=115	=115	=115	=115	=115	=115	=115	=115
1-VII	B-:maj	.	.	.	151.371	.	trumpet	1B- 1dd 1ff
=116	=116	=116	=116	=116	=116	=116	=116	=116
1IV	F:maj	.	.	.	152.662	.	trumpet	1F 1a 1cc
=117	=117	=117	=117	=117	=117	=117	=117	=117
1I	C:maj	Shoot	.	.	153.954	newline	.	1C 1e 1g
.	.	.	.	.	.	.	.	.
.	.	Shoot	.	.	.	.	.	.
.	.	.	.	.	.	.	.	.
=118	=118	=118	=118	=118	=118	=118	=118	=118
2-VII	B-:maj	.	.	.	155.244	.	.	2B- 2dd 2ff
.	.	Dee-	.	.	.	.	.	.
.	.	-dle	.	.	.	.	.	.
2IV	F:maj	lee-	.	.	155.888	.	.	2F 2a 2cc
.	.	-dle	.	.	.	.	.	.
.	.	lee!	.	.	.	.	.	.
=119	=119	=119	=119	=119	=119	=119	=119	=119
1I	C:maj	.	.	.	156.534	.	.	1C 1e 1g
=120	=120	=120	=120	=120	=120	=120	=120	=120
2-VII	B-:maj	.	.	.	157.823	.	.	1B- 1dd 1ff
2IV	F:maj	.	.	.	158.468	.	.	2F 2a 2cc
=121	=121	=121	=121	=121	=121	=121	=121	=121
1I	C:maj	Shoot	.	.	159.113	.	.	1C 1e 1g
.	.	.	.	.	.	.	.	.
.	.	Shoot	.	.	.	.	.	.
.	.	.	.	.	.	.	.	.
=122	=122	=122	=122	=122	=122	=122	=122	=122
2-VII	B-:maj	.	.	.	160.403	.	.	2B- 2dd 2ff
.	.	Dee-	.	.	.	.	.	.
.	.	-dle	.	.	.	.	.	.
2IV	F:maj	lee-	.	.	161.048	.	.	2F 2a 2cc
.	.	-dle	.	.	.	.	.	.
.	.	lee!	.	.	.	.	.	.
=123	=123	=123	=123	=123	=123	=123	=123	=123
1I	C:maj	.	.	.	161.693	.	.	1C 1e 1g
=124	=124	=124	=124	=124	=124	=124	=124	=124
2-VII	B-:maj	.	.	.	162.983	.	.	1B- 1dd 1ff
2IV	F:maj	.	.	.	163.628	.	.	2F 2a 2cc
=125	=125	=125	=125	=125	=125	=125	=125	=125
1V	G:maj	.	.	.	164.273	newline	trumpet	1G 1b 1dd
=126	=126	=126	=126	=126	=126	=126	=126	=126
1V	G:maj	.	.	.	165.572	.	trumpet	1G 1b 1dd
=127	=127	=127	=127	=127	=127	=127	=127	=127
1IV	F:maj	.	.	.	166.871	.	trumpet	1F 1a 1cc
=128	=128	=128	=128	=128	=128	=128	=128	=128
1IV	F:maj	.	.	.	168.17	.	trumpet	1F 1a 1cc
=129	=129	=129	=129	=129	=129	=129	=129	=129
2V	G:maj	.	.	.	169.469	newline	organ	1G 1b 1dd
2-VId	A-:maj/7	.	.	.	170.101	.	organ	2a- 2cc 2ee-
=130	=130	=130	=130	=130	=130	=130	=130	=130
2VId	A:maj/b7	.	.	.	170.733	.	organ	1a 1cc# 1ee
2-VId	A-:maj/7	.	.	.	171.366	.	organ	2a- 2cc 2ee-
=131	=131	=131	=131	=131	=131	=131	=131	=131
2V	G:maj	.	.	.	171.998	.	organ	1G 1b 1dd
2-VId	A-:maj/7	.	.	.	172.63	.	organ	2a- 2cc 2ee-
=132	=132	=132	=132	=132	=132	=132	=132	=132
2-VIIg	B-:maj/6	.	.	.	173.262	.	organ	1B- 1dd 1ff
2VIIg	B:maj/b6	.	.	.	173.894	.	organ	2B 2dd# 2ff#
=133	=133	=133	=133	=133	=133	=133	=133	=133
*>Letter>C	*>Letter>C	*>Letter>C	*>Letter>C	*>Letter>C	*>Letter>C	*>Letter>C	*>Letter>C	*>Letter>C
*>Label>Chorus	*>Label>Chorus	*>Label>Chorus	*>Label>Chorus	*>Label>Chorus	*>Label>Chorus	*>Label>Chorus	*>Label>Chorus	*>Label>Chorus
2I	C:maj	.	Freeze	.	174.526	newline	voice	2C 2e 2g
.	.	.	frame	.	.	.	.	.
2r	N	Freeze	.	.	175.177	.	voice	2r
.	.	frame	.	.	.	.	.	.
=134	=134	=134	=134	=134	=134	=134	=134	=134
2I	C:maj	_	Freeze	.	175.827	.	voice	2C 2e 2g
.	.	.	frame	.	.	.	.	.
2r	N	Freeze	.	.	176.477	.	voice	2r
.	.	_	.	.	.	.	.	.
.	.	frame	.	.	.	.	.	.
=135	=135	=135	=135	=135	=135	=135	=135	=135
2I	C:maj	.	Freeze	.	177.128	.	voice	2C 2e 2g
.	.	.	frame	.	.	.	.	.
.	.	_	.	.	.	.	.	.
2r	N	Freeze	.	.	177.778	.	voice	2r
.	.	frame	.	.	.	.	.	.
=136	=136	=136	=136	=136	=136	=136	=136	=136
2I	C:maj	.	Freeze	.	178.429	.	voice	2C 2e 2g
.	.	.	frame,	.	.	.	.	.
2r	N	.	woo!	.	179.079	.	voice	2r
.	.	N-	.	.	.	.	.	.
.	.	_	.	.	.	.	.	.
.	.	-now,	.	.	.	.	.	.
=137	=137	=137	=137	=137	=137	=137	=137	=137
1V	G:maj	freeze!	.	.	179.73	.	voice	1G 1b 1dd
=138	=138	=138	=138	=138	=138	=138	=138	=138
1r	N	.	.	.	181.03	.	voice	1r
=139	=139	=139	=139	=139	=139	=139	=139	=139
*>Letter>A	*>Letter>A	*>Letter>A	*>Letter>A	*>Letter>A	*>Letter>A	*>Letter>A	*>Letter>A	*>Letter>A
*>Label>Outro	*>Label>Outro	*>Label>Outro	*>Label>Outro	*>Label>Outro	*>Label>Outro	*>Label>Outro	*>Label>Outro	*>Label>Outro
1I	C:maj	.	.	.	182.331	newline	organ	1C 1e 1g
=140	=140	=140	=140	=140	=140	=140	=140	=140
1I	C:maj	.	.	.	183.624	.	organ	1C 1e 1g
=141	=141	=141	=141	=141	=141	=141	=141	=141
1-VII	B-:maj	.	.	.	184.918	.	organ	1B- 1dd 1ff
=142	=142	=142	=142	=142	=142	=142	=142	=142
1IV	F:maj	.	.	.	186.211	.	organ	1F 1a 1cc
=143	=143	=143	=143	=143	=143	=143	=143	=143
1I	C:maj	.	.	.	187.504	.	organ	1C 1e 1g
=144	=144	=144	=144	=144	=144	=144	=144	=144
1I	C:maj	.	.	.	188.797	.	organ	1C 1e 1g
=145	=145	=145	=145	=145	=145	=145	=145	=145
1-VII	B-:maj	Yeah!	.	.	190.091	.	organ	1B- 1dd 1ff
=146	=146	=146	=146	=146	=146	=146	=146	=146
1IV	F:maj	.	.	.	191.384	.	organ	1F 1a 1cc
=147	=147	=147	=147	=147	=147	=147	=147	=147
1I	C:maj	.	Freeze	.	192.677	newline	voice	1C 1e 1g
.	.	.	frame	.	.	.	.	.
.	.	.	.	.	.	.	.	.
=148	=148	=148	=148	=148	=148	=148	=148	=148
1I	C:maj	.	.	.	193.96	.	voice	1C 1e 1g
.	.	Oh,	.	.	.	.	.	.
.	.	yeah!	.	.	.	.	.	.
.	.	_	.	.	.	.	.	.
.	.	_	.	.	.	.	.	.
.	.	_	.	.	.	.	.	.
=149	=149	=149	=149	=149	=149	=149	=149	=149
1-VII	B-:maj	.	Freeze	.	195.244	.	voice	1B- 1dd 1ff
.	.	.	frame	.	.	.	.	.
.	.	.	_	.	.	.	.	.
.	.	.	_	.	.	.	.	.
.	.	.	_	.	.	.	.	.
=150	=150	=150	=150	=150	=150	=150	=150	=150
1IV	F:maj	.	_	.	196.527	.	voice	1F 1a 1cc
.	.	.	.	.	.	.	.	.
.	.	.	It's	.	.	.	.	.
.	.	.	time	.	.	.	.	.
.	.	.	to	.	.	.	.	.
=151	=151	=151	=151	=151	=151	=151	=151	=151
1I	C:maj	.	Freeze	.	197.81	.	voice	1C 1e 1g
.	.	.	frame	.	.	.	.	.
.	.	_	.	.	.	.	.	.
.	.	Freeze	.	.	.	.	.	.
.	.	frame	.	.	.	.	.	.
=152	=152	=152	=152	=152	=152	=152	=152	=152
1I	C:maj	_	.	.	199.093	.	voice	1C 1e 1g
.	.	_	.	.	.	.	.	.
.	.	_	.	.	.	.	.	.
.	.	.	.	.	.	.	.	.
=153	=153	=153	=153	=153	=153	=153	=153	=153
1-VII	B-:maj	.	Freeze	.	200.376	.	voice	1B- 1dd 1ff
.	.	.	frame	.	.	.	.	.
.	.	.	_	.	.	.	.	.
.	.	.	_	.	.	.	.	.
.	.	.	_	.	.	.	.	.
=154	=154	=154	=154	=154	=154	=154	=154	=154
1IV	F:maj	.	_	.	201.66	.	voice	1F 1a 1cc
.	.	.	.	.	.	.	.	.
.	.	It's	It's	.	.	.	.	.
.	.	like	time	.	.	.	.	.
.	.	a	to	.	.	.	.	.
=155	=155	=155	=155	=155	=155	=155	=155	=155
1I	C:maj	freeze	Shoot	.	202.943	newline	voice	1C 1e 1g
.	.	.	.	.	.	.	.	.
.	.	freeze	shoot	.	.	.	.	.
.	.	.	.	.	.	.	.	.
=156	=156	=156	=156	=156	=156	=156	=156	=156
1I	C:maj	freeze	.	.	204.232	.	voice	1C 1e 1g
.	.	.	dee-	.	.	.	.	.
.	.	.	-dle	.	.	.	.	.
.	.	woo!	lee-	.	.	.	.	.
.	.	.	-dle	.	.	.	.	.
.	.	.	lee!	.	.	.	.	.
=157	=157	=157	=157	=157	=157	=157	=157	=157
1-VII	B-:maj	.	Freeze	.	205.521	.	voice	1B- 1dd 1ff
.	.	.	frame	.	.	.	.	.
.	.	.	_	.	.	.	.	.
.	.	.	_	.	.	.	.	.
.	.	.	_	.	.	.	.	.
=158	=158	=158	=158	=158	=158	=158	=158	=158
1IV	F:maj	.	_	.	206.81	.	voice	1F 1a 1cc
.	.	.	.	.	.	.	.	.
.	.	It's	It's	.	.	.	.	.
.	.	like	time	.	.	.	.	.
.	.	a	to	.	.	.	.	.
=159	=159	=159	=159	=159	=159	=159	=159	=159
1I	C:maj	freeze	Shoot	.	208.099	.	voice	1C 1e 1g
.	.	.	.	.	.	.	.	.
.	.	freeze	shoot	.	.	.	.	.
.	.	.	.	.	.	.	.	.
=160	=160	=160	=160	=160	=160	=160	=160	=160
*	*	*	*	*	*	*	*	*
1I	C:maj	ah	.	.	209.388	.	voice	1C 1e 1g
.	.	.	dee-	.	.	.	.	.
.	.	.	-dle	.	.	.	.	.
.	.	.	lee-	.	.	.	.	.
.	.	.	-dle	.	.	.	.	.
.	.	.	lee!	.	.	.	.	.
=161	=161	=161	=161	=161	=161	=161	=161	=161
1-VII	B-:maj	_	Freeze	.	210.678	.	voice	1B- 1dd 1ff
.	.	.	frame	.	.	.	.	.
.	.	.	_	.	.	.	.	.
.	.	.	_	.	.	.	.	.
.	.	.	_	.	.	.	.	.
=162	=162	=162	=162	=162	=162	=162	=162	=162
1IV	F:maj	_	_	.	211.967	.	voice	1F 1a 1cc
.	.	.	.	.	.	.	.	.
.	.	.	It's	.	.	.	.	.
.	.	.	time	.	.	.	.	.
.	.	.	to	.	.	.	.	.
=163	=163	=163	=163	=163	=163	=163	=163	=163
1I	C:maj	_	Shoot	.	213.256	newline	voice	1C 1e 1g
.	.	.	.	.	.	.	.	.
.	.	.	shoot	.	.	.	.	.
.	.	.	.	.	.	.	.	.
=164	=164	=164	=164	=164	=164	=164	=164	=164
1I	C:maj	_	.	.	214.548	.	voice	1C 1e 1g
.	.	.	dee-	.	.	.	.	.
.	.	.	-dle	.	.	.	.	.
.	.	.	lee-	.	.	.	.	.
.	.	.	-dle	.	.	.	.	.
.	.	_	lee!	.	.	.	.	.
=165	=165	=165	=165	=165	=165	=165	=165	=165
1-VII	B-:maj	_	Freeze	.	215.84	.	voice	1B- 1dd 1ff
.	.	.	frame	.	.	.	.	.
.	.	.	.	.	.	.	.	.
.	.	.	_	.	.	.	.	.
.	.	.	_	.	.	.	.	.
.	.	.	_	.	.	.	.	.
=166	=166	=166	=166	=166	=166	=166	=166	=166
1IV	F:maj	.	_	.	217.131	.	voice	1F 1a 1cc
.	.	.	.	.	.	.	.	.
.	.	.	It's	.	.	.	.	.
.	.	.	time	.	.	.	.	.
.	.	.	to	.	.	.	.	.
=167	=167	=167	=167	=167	=167	=167	=167	=167
1I	C:maj	.	Shoot	.	218.423	.	voice	1C 1e 1g
.	.	.	.	.	.	.	.	.
.	.	.	shoot	.	.	.	.	.
.	.	.	.	.	.	.	.	.
=168	=168	=168	=168	=168	=168	=168	=168	=168
1I	C:maj	.	.	.	219.715	.	voice	1C 1e 1g
.	.	.	dee-	.	.	.	.	.
.	.	.	-dle	.	.	.	.	.
.	.	.	lee-	.	.	.	.	.
.	.	.	-dle	.	.	.	.	.
.	.	.	lee!	.	.	.	.	.
=169	=169	=169	=169	=169	=169	=169	=169	=169
1-VII	B-:maj	.	Freeze	.	221.007	.	voice	1B- 1dd 1ff
.	.	.	frame!	.	.	.	.	.
.	.	.	_	.	.	.	.	.
.	.	.	_	.	.	.	.	.
.	.	.	_	.	.	.	.	.
=170	=170	=170	=170	=170	=170	=170	=170	=170
1IV	F:maj	.	_	.	222.299	.	voice	1F 1a 1cc
1r;	N	.	.	.	223.591	.	r	1r;
1r;	N	.	.	.	224.883	.	r	1r;
1r;	N	.	.	.	235.218	.	r	1r;
*-	*-	*-	*-	*-	*-	*-	*-	*-
!!!BillboardChartDate: 1982/03/20
!!!BillboardPeak: 4
!!!BillboardWeeksOnChart: 16
!!!COC: The J. Geils Band
!!!ENC: Nathaniel Condit-Schultz
!!!EST: Awating manual error checking and editing.
!!!OTL: Freeze-Frame
!!!RDF**harte: Chris Harte's syntax, used by MIREX
!!!RDF**harmony: **recip + pitch class of root + harmonic quality
!!!RDF**leadinstrument: original McGill primary instrumentation annotation
!!!RDF**phrase: newline = linebreak in original McGill transcription
!!!RDF**timestamp: McGill audio timestamp in seconds
!!!RDT: 2017/01/12/
!!!SampleActualRank: 18
!!!SampleID#: 1002
!!!SampleTargetRank: 19
!!!MBID: c20894c0-3f36-455e-9b04-721d7fcd5893
